icons/Gruvbox-Material-Dark/64x64/apps/discord.svg

<svg width="64" height="64" version="1.1" xmlns="http://www.w3.org/2000/svg" xmlns:xlink="http://www.w3.org/1999/xlink">
 <circle cx="32" cy="33" r="28" style="opacity:.2"/>
 <circle cx="32" cy="32" r="28" style="fill:#6ab1e6"/>
 <path d="m26.841797 19.001953c-2.571163 0.451894-5.03223 1.242565-7.328125 2.318359-0.01987 0.0088-0.03362 0.02208-0.04492 0.04102-4.667008 7.115091-5.947495 14.055992-5.320312 20.910156 0.0029 0.03353 0.02132 0.06555 0.04687 0.08594 3.079158 2.307537 6.060979 3.708177 8.988282 4.636719 0.04686 0.01459 0.09715-0.0018 0.126953-0.04102 0.692454-0.964968 1.310603-1.76203 1.839844-2.832031 0.03123-0.06266 0.0014-0.137322-0.0625-0.16211-0.979078-0.379001-1.909853-0.840479-2.806641-1.365234-0.07093-0.04228-0.07884-0.145744-0.01367-0.195312 0.188717-0.144306 0.378396-0.295664 0.558594-0.447266 0.03261-0.02768 0.07886-0.0331 0.117187-0.01563 5.891517 2.744904 12.269794 2.744904 18.091797 0 0.03832-0.01893 0.08121-0.01417 0.115235 0.01367 0.180249 0.1516 0.370409 0.304914 0.560547 0.449219 0.06525 0.04956 0.05921 0.153042-0.01172 0.195312-0.896788 0.534951-1.828091 0.987681-2.808594 1.365234-0.06383 0.02479-0.09178 0.09945-0.06055 0.16211 0.540598 1.068502 1.15626 1.86506 1.835938 2.830078 0.02839 0.04082 0.0801 0.05757 0.126953 0.04297 2.941502-0.928542 5.924747-2.32918 9.003906-4.636719 0.02697-0.02039 0.04599-0.05241 0.04883-0.08594 0.75061-7.924165-1.260834-14.804242-5.326172-20.90625-0.01-0.02039-0.02504-0.03618-0.04492-0.04492-2.294474-1.074345-4.75359-1.865015-7.326171-2.318359-0.04686-0.0088-0.09501 0.01108-0.119141 0.05469-0.316437 0.57433-0.664702 0.643506-0.910156 1.232421-2.766979-0.422723-5.522181-0.422722-8.232422 0-0.245505-0.602004-0.607922-0.658091-0.925781-1.232421-0.02413-0.04228-0.07229-0.06199-0.119141-0.05469zm-1.345703 12.998047c1.964368 0 3.534616 1.584517 3.503906 3.5 0 1.929277-1.554892 3.5-3.503906 3.5-1.918413 0-3.496094-1.570723-3.496094-3.5 0-1.929278 1.547025-3.5 3.496094-3.5zm13.003906 0c1.964425 0 3.530658 1.584517 3.5 3.5 1e-6 1.929277-1.535575 3.5-3.5 3.5-1.918357 0-3.5-1.570723-3.5-3.5 0-1.929278 1.550932-3.5 3.5-3.5z" style="opacity:.2"/>
 <path d="m26.841797 18.001953c-2.571163 0.451894-5.03223 1.242565-7.328125 2.318359-0.01987 0.008801-0.033622 0.022076-0.044922 0.041016-4.667008 7.115091-5.947495 14.055992-5.320312 20.910156 0.0029 0.03353 0.021325 0.065548 0.046874 0.085938 3.079158 2.307537 6.060979 3.708177 8.988282 4.636719 0.04686 0.01459 0.097148-0.001786 0.126953-0.041016 0.692454-0.964968 1.310603-1.76203 1.839844-2.832031 0.03123-0.06266 0.0014-0.137322-0.0625-0.16211-0.979078-0.379001-1.909853-0.840479-2.806641-1.365234-0.07093-0.04228-0.078842-0.145744-0.013672-0.195312 0.188717-0.144306 0.378396-0.295664 0.558594-0.447266 0.03261-0.02768 0.078859-0.033105 0.117187-0.015625 5.891517 2.744904 12.269794 2.744904 18.091797 0 0.03832-0.01893 0.081207-0.014168 0.115235 0.013672 0.180249 0.1516 0.370409 0.304914 0.560547 0.449219 0.065249 0.049559 0.059211 0.153042-0.011719 0.195312-0.896788 0.534951-1.828091 0.987681-2.808594 1.365234-0.06383 0.02479-0.091777 0.099446-0.060547 0.16211 0.540598 1.068502 1.15626 1.86506 1.835938 2.830078 0.02839 0.04082 0.080098 0.057569 0.126953 0.042969 2.941502-0.928542 5.924747-2.32918 9.003906-4.636719 0.02697-0.02039 0.045988-0.052408 0.048828-0.085938 0.75061-7.924165-1.260834-14.804242-5.326172-20.90625-0.01-0.02039-0.025042-0.036181-0.044922-0.044922-2.294474-1.074345-4.75359-1.865015-7.326171-2.318359-0.046861-0.0088-0.095009 0.011078-0.119141 0.054688-0.316437 0.57433-0.664702 0.643506-0.910156 1.232421-2.766979-0.422723-5.522181-0.422722-8.232422 0-0.245505-0.602004-0.607922-0.658091-0.925781-1.232421-0.02413-0.04228-0.072289-0.061988-0.119141-0.054688zm-1.345703 12.998047c1.964368 0 3.534616 1.584517 3.503906 3.5 0 1.929277-1.554892 3.5-3.503906 3.5-1.918413 0-3.496094-1.570723-3.496094-3.5 0-1.929278 1.547025-3.5 3.496094-3.5zm13.003906 0c1.964425 0 3.530658 1.584517 3.5 3.5 1e-6 1.929277-1.535575 3.5-3.5 3.5-1.918357 0-3.5-1.570723-3.5-3.5 0-1.929278 1.550932-3.5 3.5-3.5z" style="fill:#ffffff"/>
 <path d="M 32 4 A 28 28 0 0 0 4 32 A 28 28 0 0 0 4.0058594 32.509766 A 28 28 0 0 1 32 5 A 28 28 0 0 1 59.994141 32.490234 A 28 28 0 0 0 60 32 A 28 28 0 0 0 32 4 z" style="fill:#ffffff;opacity:.1"/>
</svg>

<svg xmlns="http://www.w3.org/2000/svg" width="64" height="64" version="1.1">
 <circle style="opacity:0.2" cx="32" cy="33" r="28"/>
 <circle style="fill:#5865f2" cx="32" cy="32" r="28"/>
 <path style="opacity:0.2" d="m 26.841797,19.001953 c -2.571163,0.451894 -5.03223,1.242565 -7.328125,2.318359 -0.01987,0.0088 -0.03362,0.02208 -0.04492,0.04102 -4.667008,7.115091 -5.947495,14.055992 -5.320312,20.910156 0.0029,0.03353 0.02132,0.06555 0.04687,0.08594 3.079158,2.307537 6.060979,3.708177 8.988282,4.636719 0.04686,0.01459 0.09715,-0.0018 0.126953,-0.04102 0.692454,-0.964968 1.310603,-1.76203 1.839844,-2.832031 0.03123,-0.06266 0.0014,-0.137322 -0.0625,-0.16211 -0.979078,-0.379001 -1.909853,-0.840479 -2.806641,-1.365234 -0.07093,-0.04228 -0.07884,-0.145744 -0.01367,-0.195312 0.188717,-0.144306 0.378396,-0.295664 0.558594,-0.447266 0.03261,-0.02768 0.07886,-0.0331 0.117187,-0.01563 5.891517,2.744904 12.269794,2.744904 18.091797,0 0.03832,-0.01893 0.08121,-0.01417 0.115235,0.01367 0.180249,0.1516 0.370409,0.304914 0.560547,0.449219 0.06525,0.04956 0.05921,0.153042 -0.01172,0.195312 -0.896788,0.534951 -1.828091,0.987681 -2.808594,1.365234 -0.06383,0.02479 -0.09178,0.09945 -0.06055,0.16211 0.540598,1.068502 1.15626,1.86506 1.835938,2.830078 0.02839,0.04082 0.0801,0.05757 0.126953,0.04297 2.941502,-0.928542 5.924747,-2.32918 9.003906,-4.636719 0.02697,-0.02039 0.04599,-0.05241 0.04883,-0.08594 0.75061,-7.924165 -1.260834,-14.804242 -5.326172,-20.90625 -0.01,-0.02039 -0.02504,-0.03618 -0.04492,-0.04492 -2.294474,-1.074345 -4.75359,-1.865015 -7.326171,-2.318359 -0.04686,-0.0088 -0.09501,0.01108 -0.119141,0.05469 -0.316437,0.57433 -0.664702,0.643506 -0.910156,1.232421 -2.766979,-0.422723 -5.522181,-0.422722 -8.232422,0 -0.245505,-0.602004 -0.607922,-0.658091 -0.925781,-1.232421 -0.02413,-0.04228 -0.07229,-0.06199 -0.119141,-0.05469 z M 25.496094,32 C 27.460462,32 29.03071,33.584517 29,35.5 29,37.429277 27.445108,39 25.496094,39 23.577681,39 22,37.429277 22,35.5 22,33.570722 23.547025,32 25.496094,32 Z M 38.5,32 c 1.964425,0 3.530658,1.584517 3.5,3.5 10e-7,1.929277 -1.535575,3.5 -3.5,3.5 C 36.581643,39 35,37.429277 35,35.5 35,33.570722 36.550932,32 38.5,32 Z"/>
 <path style="fill:#ffffff" d="M 26.841797 18.001953 C 24.270634 18.453847 21.809567 19.244518 19.513672 20.320312 C 19.493802 20.329113 19.48005 20.342388 19.46875 20.361328 C 14.801742 27.476419 13.521255 34.41732 14.148438 41.271484 C 14.151338 41.305014 14.169763 41.337032 14.195312 41.357422 C 17.27447 43.664959 20.256291 45.065599 23.183594 45.994141 C 23.230454 46.008731 23.280742 45.992355 23.310547 45.953125 C 24.003001 44.988157 24.62115 44.191095 25.150391 43.121094 C 25.181621 43.058434 25.151791 42.983772 25.087891 42.958984 C 24.108813 42.579983 23.178038 42.118505 22.28125 41.59375 C 22.21032 41.55147 22.202408 41.448006 22.267578 41.398438 C 22.456295 41.254132 22.645974 41.102774 22.826172 40.951172 C 22.858782 40.923492 22.905031 40.918067 22.943359 40.935547 C 28.834876 43.680451 35.213153 43.680451 41.035156 40.935547 C 41.073476 40.916617 41.116363 40.921379 41.150391 40.949219 C 41.33064 41.100819 41.5208 41.254133 41.710938 41.398438 C 41.776187 41.447997 41.770149 41.55148 41.699219 41.59375 C 40.802431 42.128701 39.871128 42.581431 38.890625 42.958984 C 38.826795 42.983774 38.798848 43.05843 38.830078 43.121094 C 39.370676 44.189596 39.986338 44.986154 40.666016 45.951172 C 40.694406 45.991992 40.746114 46.008741 40.792969 45.994141 C 43.734471 45.065599 46.717716 43.664961 49.796875 41.357422 C 49.823845 41.337032 49.842863 41.305014 49.845703 41.271484 C 50.596313 33.347319 48.584869 26.467242 44.519531 20.365234 C 44.509531 20.344844 44.494489 20.329053 44.474609 20.320312 C 42.180135 19.245967 39.721019 18.455297 37.148438 18.001953 C 37.101577 17.993153 37.053429 18.013031 37.029297 18.056641 C 36.71286 18.630971 36.364595 18.700147 36.119141 19.289062 C 33.352162 18.866339 30.59696 18.86634 27.886719 19.289062 C 27.641214 18.687058 27.278797 18.630971 26.960938 18.056641 C 26.936808 18.014361 26.888649 17.994653 26.841797 18.001953 z M 25.496094 31 C 27.460462 31 29.03071 32.584517 29 34.5 C 29 36.429277 27.445108 38 25.496094 38 C 23.577681 38 22 36.429277 22 34.5 C 22 32.570722 23.547025 31 25.496094 31 z M 38.5 31 C 40.464425 31 42.030658 32.584517 42 34.5 C 42.000001 36.429277 40.464425 38 38.5 38 C 36.581643 38 35 36.429277 35 34.5 C 35 32.570722 36.550932 31 38.5 31 z"/>
 <path style="fill:#ffffff;opacity:0.1" d="M 32 4 A 28 28 0 0 0 4 32 A 28 28 0 0 0 4.0058594 32.509766 A 28 28 0 0 1 32 5 A 28 28 0 0 1 59.994141 32.490234 A 28 28 0 0 0 60 32 A 28 28 0 0 0 32 4 z"/>
</svg>
